images/USDx.svg

<svg height="250" viewBox="0 0 250 250" width="250" xmlns="http://www.w3.org/2000/svg"><g fill="#0e0d28" fill-rule="evenodd"><path d="m123.945312.152344h-8.675781v57.171875c16.527344.378906 33.035157-.734375 43.75.484375l-.695312 33.898437s-33.875 1.828125-47.878907 1.992188c-10.773437.128906-6.582031 6.023437-2.082031 6.875 4.5.855469 30.316407 6.890625 38.886719 11.003906s13.921875 7.386719 16.664062 27.519531c2.742188 20.132813-4.597656 49.453125-46.5625 50.246094h-2.082031v60.46875h8.675781c69.613282 0 126.042969-55.898438 126.042969-124.847656 0-68.953125-56.429687-124.847656-126.042969-124.847656zm0 0"/><path d="m59.023438 187.175781 1.386718-34.382812s39.894532 1.527343 52.777344-.617188c9.011719-1.1875 4.164062-5.503906 4.164062-5.503906s-31.121093-5.570313-41.667968-11c-10.542969-5.429687-22.5625-16.28125-16.027344-51.847656 3.398438-18.285157 22.382812-25.410157 43.75-26.441407v-57.230468h-79.464844c-13.222656 0-23.941406 10.617187-23.941406 23.714844v202.230468c0 13.097656 10.71875 23.714844 23.941406 23.714844h79.523438v-60.574219c-30.988282-.925781-44.441406-2.0625-44.441406-2.0625zm0 0"/></g></svg>

<svg xmlns="http://www.w3.org/2000/svg" xmlns:xlink="http://www.w3.org/1999/xlink" width="250px" height="250px" viewBox="0 0 250 250" version="1.1">
<g id="surface1">
<path style=" stroke:none;fill-rule:evenodd;fill:rgb(5.490196%,5.098039%,15.686275%);fill-opacity:1;" d="M 123.945312 0.152344 L 115.269531 0.152344 L 115.269531 57.324219 C 131.796875 57.703125 148.304688 56.589844 159.019531 57.808594 L 158.324219 91.707031 C 158.324219 91.707031 124.449219 93.535156 110.445312 93.699219 C 99.671875 93.828125 103.863281 99.722656 108.363281 100.574219 C 112.863281 101.429688 138.679688 107.464844 147.25 111.578125 C 155.820312 115.691406 161.171875 118.964844 163.914062 139.097656 C 166.65625 159.230469 159.316406 188.550781 117.351562 189.34375 L 115.269531 189.34375 L 115.269531 249.8125 L 123.945312 249.8125 C 193.558594 249.8125 249.988281 193.914062 249.988281 124.964844 C 249.988281 56.011719 193.558594 0.117188 123.945312 0.117188 Z M 123.945312 0.152344 "/>
<path style=" stroke:none;fill-rule:evenodd;fill:rgb(5.490196%,5.098039%,15.686275%);fill-opacity:1;" d="M 59.023438 187.175781 L 60.410156 152.792969 C 60.410156 152.792969 100.304688 154.320312 113.1875 152.175781 C 122.199219 150.988281 117.351562 146.671875 117.351562 146.671875 C 117.351562 146.671875 86.230469 141.101562 75.683594 135.671875 C 65.140625 130.242188 53.121094 119.390625 59.65625 83.824219 C 63.054688 65.539062 82.039062 58.414062 103.40625 57.382812 L 103.40625 0.152344 L 23.941406 0.152344 C 10.71875 0.152344 0 10.769531 0 23.867188 L 0 226.097656 C 0 239.195312 10.71875 249.8125 23.941406 249.8125 L 103.464844 249.8125 L 103.464844 189.238281 C 72.476562 188.3125 59.023438 187.175781 59.023438 187.175781 Z M 59.023438 187.175781 "/>
</g>
</svg>
